assets/icons/vscom/building-blocks.svg

<svg xmlns="http://www.w3.org/2000/svg" viewBox="0 0 1000 1000" enable-background="new 0 0 1000 1000"><path d="M687.5 250v187.5h312.5v-437.5h-500v250h187.5zm-125-187.5h375v312.5h-187.5v-187.5h-187.5v-125zm0 500v-187.5h-187.5v-187.5h-312.5v812.5h750v-437.5h-250zm-437.5-312.5h187.5v187.5h187.5v125h-375v-312.5zm375 687.5h-375v-312.5h187.5v187.5h187.5v125zm250 0h-187.5v-187.5h-187.5v-125h375v312.5z"/></svg>

<?xml version="1.0" encoding="utf-8"?>
<!-- Generator: Adobe Illustrator 19.1.0, SVG Export Plug-In . SVG Version: 6.00 Build 0)  -->
<svg version="1.1" xmlns="http://www.w3.org/2000/svg" xmlns:xlink="http://www.w3.org/1999/xlink" x="0px" y="0px"
	 viewBox="0 0 1000 1000" enable-background="new 0 0 1000 1000" xml:space="preserve">
<path id="outline" d="M687.5,250v187.5H1000V0H500v250H687.5z M562.5,62.5h375V375H750V187.5H562.5V62.5z M562.5,562.5V375H375
	V187.5H62.5V1000h750V562.5H562.5z M125,250h187.5v187.5H500v125H125V250z M500,937.5H125V625h187.5v187.5H500V937.5z M750,937.5
	H562.5V750H375V625h375V937.5z"/>
<g>
</g>
<g>
</g>
<g>
</g>
<g>
</g>
<g>
</g>
<g>
</g>
</svg>
